!!!OTL: "Der Ritt zum Kloster" ICH STAND AUF HOHEM BERGE
!!!ARE: Europa, Mitteleuropa, Deutschland
!!!SCT: Z1006
!!!YEM: Copyright 1995, estate of Helmut Schaffrath.
**kern
*ICvox
*Ivox
*M2/4
*k[f#c#g#d#]
*E:
{16e
16g#
=1
8.b
16cc#
8b
8a
=2
4g#
4f#}
=3
{8f#
8g#
8a#
8a#
=4
4.b}
{8b
=5
8ee
8ee
8dd#
8cc#
=6
4b
4a}
=7
{4g#
4f#
=8
4cc#
8b}
{16b
16a
=9
8g#
8g#
8f#
8f#
=10
4e
8r}
==
!!!AGN: Romanze, Ballade, Tod, Sage (Nonnen - Werber)
!!!ONB: ESAC (Essen Associative Code) Database: ZUCCAL
!!!AMT: simple duple
!!!AIN: vox
!!!EED: Helmut Schaffrath
!!!EEV: 1.0
*-
